svgs/solid/traffic-cone.svg

<svg xmlns="http://www.w3.org/2000/svg" viewBox="0 0 512 512"><!--! Font Awesome Pro 6.2.0 by @fontawesome - https://fontawesome.com License - https://fontawesome.com/license (Commercial License) Copyright 2022 Fonticons, Inc. --><path d="M173.7 128L216 20.3C220.8 8.1 232.7 0 245.8 0h20.4c13.2 0 25 8.1 29.8 20.3L338.3 128H173.7zm-25.1 64H363.4l37.7 96H110.9l37.7-96zM48 448l37.7-96H426.3L464 448h16c17.7 0 32 14.3 32 32s-14.3 32-32 32H32c-17.7 0-32-14.3-32-32s14.3-32 32-32H48z"/></svg>

<svg xmlns="http://www.w3.org/2000/svg" viewBox="0 0 512 512"><!--! Font Awesome Pro 6.1.2 by @fontawesome - https://fontawesome.com License - https://fontawesome.com/license (Commercial License) Copyright 2022 Fonticons, Inc. --><path d="M173.7 128L216 20.3C220.8 8.053 232.7 0 245.8 0H266.2C279.3 0 291.2 8.053 295.1 20.3L338.3 128H173.7zM363.4 192L401.1 288H110.9L148.6 192H363.4zM48 448L85.71 352H426.3L464 448H480C497.7 448 512 462.3 512 480C512 497.7 497.7 512 480 512H32C14.33 512 0 497.7 0 480C0 462.3 14.33 448 32 448H48z"/></svg>
